X:68
T:Jenni's Welcome to Glencoe
R:reel
C:Paul S. Cranford
O:Cape Breton Island
S:http://www.cranfordpub.com
D:currently unrecorded
B:currently unpublished in book form
Z:psc, (re-formatted,updated 9/17/04)
N:
H:                                                        copyrights Cranford Publications, SOCAN
L:1/8
Q:333
M:C|
K:EAeo
d|eEBE GBEb|adba fedf|eEBE GABb|adba (3(gfe) ed|
eEBE GBEb|adba fedf|eEdE BdAd|FDAF BEE:|
|:A|B2 ed Bdeb|adba fede|Beed efgb|adba (3(gfe) ed|
B2 ed Bdeb|adba fedf|[1eEdE BdAd|FDAF BEE:|
[2bdad faef|dBAF E2E|]
